X:7351
T:Humours of Lisadell
M:C
L:1/8
K:E Dorian
g|eBB2 eBdB|AFF2 EDB,A,|B,EE2 B,EGE|FBB2 FB,Df|!
eBB2 eBdB|AFF2 EDB,A,|B,EED EFGA|Bdef e3:|!
f|eBB2 A2FA|defd edef|dff2 dfbf|afdf edef|!
defd BcdB|AFF2 ABde|fddc dfbf|afdf e3:|!
